icons/folder-controller-open.svg

<svg xmlns="http://www.w3.org/2000/svg" viewBox="0 0 32 32">
  <path d="M28.96692,12H9.44152a2,2,0,0,0-1.89737,1.36754L4,24V10H28a2,2,0,0,0-2-2H15.1241a2,2,0,0,1-1.28038-.46357L12.5563,6.46357A2,2,0,0,0,11.27592,6H4A2,2,0,0,0,2,8V24a2,2,0,0,0,2,2H26l4.80523-11.21213A2,2,0,0,0,28.96692,12Z" style="fill: #ffc107"/>
  <path d="M23.05733,23.71467A3.07735,3.07735,0,0,1,19.98,20.63733h0a3.07734,3.07734,0,1,1,3.07734,3.07734h0m6.532-2.224a6.928,6.928,0,0,0,.06133-.85334,7.6275,7.6275,0,0,0-.06133-.87866L31.444,18.32533a.444.444,0,0,0,.10667-.56266l-1.76-3.04a.4315.4315,0,0,0-.536-.19467l-2.188.88A6.37183,6.37183,0,0,0,25.58,14.54533L25.25467,12.216a.444.444,0,0,0-.44-.36933h-3.516a.444.444,0,0,0-.44.36933l-.324,2.32933a6.37312,6.37312,0,0,0-1.48534.86134L16.86,14.528a.432.432,0,0,0-.536.19333l-1.75867,3.04134a.43333.43333,0,0,0,.10667.56266l1.85333,1.43334a7.62826,7.62826,0,0,0-.06133.88,6.90829,6.90829,0,0,0,.06133.852L14.672,22.94933a.43335.43335,0,0,0-.10667.56267L16.324,26.55467a.44266.44266,0,0,0,.536.19333l2.18933-.888a6.0632,6.0632,0,0,0,1.48534.87067L20.86,29.06a.444.444,0,0,0,.44.36933h3.516a.444.444,0,0,0,.44-.36933l.324-2.32933A6.40228,6.40228,0,0,0,27.06666,25.86l2.188.888a.445.445,0,0,0,.53733-.19333L31.54933,23.512a.444.444,0,0,0-.10533-.56267Z" style="fill: #fff9c4"/>
</svg>

<svg xmlns="http://www.w3.org/2000/svg" viewBox="0 0 32 32"><path fill="#ffc107" d="M28.967 12H9.442a2 2 0 0 0-1.898 1.368L4 24V10h24a2 2 0 0 0-2-2H15.124a2 2 0 0 1-1.28-.464l-1.288-1.072A2 2 0 0 0 11.276 6H4a2 2 0 0 0-2 2v16a2 2 0 0 0 2 2h22l4.805-11.212A2 2 0 0 0 28.967 12Z"/><path fill="#fff9c4" d="M23.057 23.715a3.077 3.077 0 0 1-3.077-3.078 3.077 3.077 0 1 1 3.077 3.078m6.532-2.224a6.928 6.928 0 0 0 .062-.854 7.628 7.628 0 0 0-.062-.878l1.855-1.434a.444.444 0 0 0 .107-.562l-1.76-3.04a.431.431 0 0 0-.536-.195l-2.188.88a6.372 6.372 0 0 0-1.487-.863l-.325-2.329a.444.444 0 0 0-.44-.37h-3.516a.444.444 0 0 0-.44.37l-.324 2.33a6.373 6.373 0 0 0-1.486.86l-2.189-.878a.432.432 0 0 0-.536.193l-1.759 3.042a.433.433 0 0 0 .107.562l1.853 1.434a7.628 7.628 0 0 0-.061.88 6.908 6.908 0 0 0 .061.852l-1.853 1.458a.433.433 0 0 0-.107.563l1.759 3.043a.443.443 0 0 0 .536.193l2.19-.888a6.063 6.063 0 0 0 1.485.87l.325 2.33a.444.444 0 0 0 .44.37h3.516a.444.444 0 0 0 .44-.37l.324-2.33a6.402 6.402 0 0 0 1.487-.87l2.188.888a.445.445 0 0 0 .537-.193l1.757-3.043a.444.444 0 0 0-.105-.563Z"/></svg>
